X:76
T:Le vin est necessaire
C:trad.
A:Touraine
O:France
M:6/8
L:1/8
Q:1/4=160
K:F
A|F3GAB|c3c2c|d2dB2d|c3 z2c|F3GAB|c3c2c|d2dB2d|c2 z||
|:ccc|B2-AGAF|G2GBBB|A3GFG|F2 z:||
W:
W:Le vin est ncessaire
W:Dieu ne le dfend pas.
W:Le vin est ncessaire
W:Dieu ne le dfend pas.
W:Il et fait la vendange amre
W:S'il et voulu qu'on en bt pas.
W:Il et fait la vendange amre
W:S'il et voulu qu'on en bt pas.
W:
W:L'amour est ncessaire, 
W:Dieu ne le dfend pas. (bis)
W:Il nous et fait des coeurs de pierre, 
W:S'il et vous qu'on aimt pas (bis)
W:
W:Les vins, les demoiselles
W:Partagent tous mes voeux. (bis)
W:Quand il est bon, qu'elles sont belles !
W:Je me ferais pendre pour eux.(bis)
W:
W:Buvons tous  la ronde,
W:Amis dans ce festin! (bis)
W:Et de peur l'amour ne gronde,
W:Voisine embrasse ton voisin! (bis)
